gama.ui.shared/icons_svg/dark/experiment/experiment.step.svg

<svg height="25" viewBox="-598.774 -3215.705 25 25" width="25" xmlns="http://www.w3.org/2000/svg"><g fill="none"><circle cx="-586.274" cy="-3203.205" fill="#666" r="12"/><circle cx="-586.274" cy="-3203.205" r="12" stroke="#fff" stroke-linecap="round" stroke-linejoin="round" stroke-width=".25"/><path d="m-584.7186-3205.1107-6.2144-4.2155c-.23335-.1556-.54446-.0934-.7.1322-.05446.0856-.0856.179-.0856.28v11.4022c0 .28.2256.5056.5056.5056.1011 0 .2022-.0311.28-.0856l6.2144-4.2155v-3.8111zm0 4.7523-5.7711 3.92c-.21.1477-.46665.2177-.7233.2177-.7078 0-1.28335-.5755-1.28335-1.2833v-11.4022c0-.2568.07775-.5056.21775-.7234.4045-.5834 1.1978-.7388 1.7889-.3422l5.7711 3.92v-2.2089c0-1.0733.87114-1.9443 1.9445-1.9443h.77775c1.07335 0 1.94445.871 1.94445 1.9443v10.1111c0 1.0734-.8711 1.9446-1.94445 1.9446h-.77775c-1.07336 0-1.9445-.8712-1.9445-1.9446zm1.9445-9.0689c-.6456 0-1.1667.5211-1.1667 1.1666v10.1111c0 .6456.5211 1.1666 1.1667 1.1666h.77775c.64555 0 1.16665-.521 1.16665-1.1666v-10.1111c0-.6455-.5211-1.1666-1.16665-1.1666z" fill="#e3e6e1"/></g></svg>

<?xml version="1.0" encoding="UTF-8" standalone="no"?>
<!DOCTYPE svg PUBLIC "-//W3C//DTD SVG 1.1//EN" "http://www.w3.org/Graphics/SVG/1.1/DTD/svg11.dtd">
<svg xmlns="http://www.w3.org/2000/svg" xmlns:xl="http://www.w3.org/1999/xlink" version="1.1" xmlns:dc="http://purl.org/dc/elements/1.1/" viewBox="-598.7741 -3215.705 24.999996 25" width="24.999996" height="25">
  <defs/>
  <g id="SOURCES" stroke-opacity="1" fill="none" stroke="none" fill-opacity="1" stroke-dasharray="none">
    <title>SOURCES</title>
    <g id="SOURCES_Dark">
      <title>Dark</title>
      <g id="Graphic_11368">
        <circle cx="-586.2741" cy="-3203.205" r="12.000018268838" fill="#666"/>
        <circle cx="-586.2741" cy="-3203.205" r="12.000018268838" stroke="white" stroke-linecap="round" stroke-linejoin="round" stroke-width=".25"/>
      </g>
      <g id="Graphic_11367">
        <path d="M -584.7186 -3205.1107 L -590.933 -3209.3262 C -591.16635 -3209.4818 -591.47746 -3209.4196 -591.633 -3209.194 C -591.68746 -3209.1084 -591.7186 -3209.015 -591.7186 -3208.914 L -591.7186 -3197.5118 C -591.7186 -3197.2318 -591.493 -3197.0062 -591.213 -3197.0062 C -591.1119 -3197.0062 -591.0108 -3197.0373 -590.933 -3197.0918 L -584.7186 -3201.3073 L -584.7186 -3205.1184 Z M -584.7186 -3200.3584 L -590.4897 -3196.4384 C -590.6997 -3196.2907 -590.95635 -3196.2207 -591.213 -3196.2207 C -591.9208 -3196.2207 -592.49635 -3196.7962 -592.49635 -3197.504 L -592.49635 -3208.9062 C -592.49635 -3209.163 -592.4186 -3209.4118 -592.2786 -3209.6296 C -591.8741 -3210.213 -591.0808 -3210.3684 -590.4897 -3209.9718 L -584.7186 -3206.0518 L -584.7186 -3208.2607 C -584.7186 -3209.334 -583.84746 -3210.205 -582.7741 -3210.205 L -581.99635 -3210.205 C -580.923 -3210.205 -580.0519 -3209.334 -580.0519 -3208.2607 L -580.0519 -3198.1496 C -580.0519 -3197.0762 -580.923 -3196.205 -581.99635 -3196.205 L -582.7741 -3196.205 C -583.84746 -3196.205 -584.7186 -3197.0762 -584.7186 -3198.1496 Z M -582.7741 -3209.4273 C -583.4197 -3209.4273 -583.9408 -3208.9062 -583.9408 -3208.2607 L -583.9408 -3198.1496 C -583.9408 -3197.504 -583.4197 -3196.983 -582.7741 -3196.983 L -581.99635 -3196.983 C -581.3508 -3196.983 -580.8297 -3197.504 -580.8297 -3198.1496 L -580.8297 -3208.2607 C -580.8297 -3208.9062 -581.3508 -3209.4273 -581.99635 -3209.4273 Z" fill="#e3e6e1"/>
      </g>
    </g>
  </g>
</svg>
